icon-themes/sifr_svg/cmd/sc_ellipsecut.svg

<svg viewBox="0 0 16 16" xmlns="http://www.w3.org/2000/svg"><g fill="#555753"><path d="m8 2c-4.418278 0-8 2.6862915-8 6 0 3.313708 3.581722 6 8 6s8-2.686292 8-6zm-.5527344 2.0839844 6.3261724 4.7460937c-.210276.6378374-.578425 1.2590139-1.316407 1.8124999-1.057072.792805-2.6532222 1.357422-4.457031 1.357422s-3.3999589-.564617-4.4570312-1.357422c-1.0570726-.7928042-1.5429688-1.7063109-1.5429688-2.642578 0-.9362674.4858962-1.8497738 1.5429688-2.6425781.940579-.7054344 2.3436123-1.1663526 3.9042968-1.2734375z"/><path d="m7.4472656 4.0839844 6.3261724 4.7460937c-.210276.6378374-.578425 1.2590139-1.316407 1.8124999-1.057072.792805-2.6532222 1.357422-4.457031 1.357422s-3.3999589-.564617-4.4570312-1.357422c-1.0570726-.7928042-1.5429688-1.7063109-1.5429688-2.642578 0-.9362674.4858962-1.8497738 1.5429688-2.6425781.940579-.7054344 2.3436123-1.1663526 3.9042968-1.2734375z" opacity=".35"/></g></svg>

<svg xmlns="http://www.w3.org/2000/svg" viewBox="0 0 16 16">
  <path
     style="fill:#555753"
     d="M 8 2 C 3.581722 2 0 4.6862915 0 8 C 0 11.313708 3.581722 14 8 14 C 12.418278 14 16 11.313708 16 8 L 8 2 z M 7.4472656 4.0839844 L 13.773438 8.8300781 C 13.563162 9.4679155 13.195013 10.089092 12.457031 10.642578 C 11.399959 11.435383 9.8038088 12 8 12 C 6.1961912 12 4.6000411 11.435383 3.5429688 10.642578 C 2.4858962 9.8497738 2 8.9362671 2 8 C 2 7.0637326 2.4858962 6.1502262 3.5429688 5.3574219 C 4.4835478 4.6519875 5.8865811 4.1910693 7.4472656 4.0839844 z "
     />
  <path
     style="fill:#555753;opacity:0.35"
     d="M 7.4472656,4.0839844 13.773438,8.8300781 C 13.563162,9.4679155 13.195013,10.089092 12.457031,10.642578 11.399959,11.435383 9.8038088,12 8,12 6.1961912,12 4.6000411,11.435383 3.5429688,10.642578 2.4858962,9.8497738 2,8.9362671 2,8 2,7.0637326 2.4858962,6.1502262 3.5429688,5.3574219 4.4835478,4.6519875 5.8865811,4.1910693 7.4472656,4.0839844 Z"
     />
</svg>
